icons/svg/survey-regular.svg

<svg width="32" height="32" viewBox="0 0 32 32" fill="none" xmlns="http://www.w3.org/2000/svg">
<path d="M7.00005 6.25C5.20539 6.25 3.75004 7.70589 3.75003 9.50109L3.74994 19C3.74994 20.9327 4.61138 21.9969 5.61435 22.4368C5.97499 22.595 6.15187 23.0051 6.01936 23.376C5.81392 23.9509 5.40897 24.5099 4.94942 24.9782C4.71959 25.2125 4.46514 25.4352 4.1962 25.6358C4.86249 25.7259 5.78679 25.6775 6.72141 25.3036C7.54024 24.9761 8.24633 24.5828 8.95697 24.1869C9.23036 24.0347 9.50444 23.882 9.78586 23.7325C10.7591 23.2157 11.8054 22.75 12.9999 22.75H25.0026C26.7969 22.75 28.25 21.2955 28.25 19.5V13.5C28.25 13.0858 28.5858 12.75 29 12.75C29.4143 12.75 29.75 13.0858 29.75 13.5V19.5C29.75 22.1227 27.6266 24.25 25.0026 24.25H12.9999C12.1944 24.25 11.4243 24.5609 10.4894 25.0573C10.2585 25.1799 10.0153 25.3154 9.76025 25.4575C9.02597 25.8666 8.19379 26.3302 7.27848 26.6964C5.8773 27.2568 4.47744 27.2594 3.52795 27.0369C3.08998 26.9343 2.60357 26.7511 2.30956 26.4276C2.14668 26.2484 1.95205 25.9137 2.06918 25.4981C2.17423 25.1254 2.46935 24.9268 2.66454 24.8292C3.08178 24.6206 3.51567 24.2977 3.87878 23.9277C4.04652 23.7567 4.19001 23.5851 4.30676 23.4204C3.06837 22.576 2.24994 21.0701 2.24994 19L2.25003 9.50108C2.25005 6.878 4.37643 4.75 7.00005 4.75H18.5C18.9142 4.75 19.25 5.08579 19.25 5.5C19.25 5.91421 18.9142 6.25 18.5 6.25H7.00005Z" fill="black"/>
<path d="M25.5036 3.57008L24.9613 5.13972L24.2524 4.89479L24.956 5.15455C24.8809 5.35785 24.7474 5.534 24.5726 5.66117C24.3976 5.78849 24.1888 5.86112 23.9727 5.87002L23.9573 5.87066H22.437L23.6094 6.87777C23.7795 7.01668 23.9063 7.20176 23.9743 7.41113C24.0444 7.62685 24.0488 7.85852 23.987 8.07674L23.9833 8.08976L23.478 9.65584L24.8912 8.69201C25.0715 8.57164 25.2834 8.50749 25.5 8.50749C25.7166 8.50749 25.9284 8.57163 26.1087 8.69201L26.1149 8.69616L27.5227 9.65635L27.0075 8.05693L27.0037 8.04358C26.9449 7.83504 26.9493 7.61371 27.0163 7.40764C27.0813 7.20764 27.2023 7.03107 27.3644 6.89842L28.562 5.87066H27.0646L27.0503 5.87011C26.834 5.86186 26.6245 5.78981 26.4485 5.66221C26.2729 5.53485 26.1389 5.35822 26.0637 5.15464L26.0601 5.14471L25.5036 3.57008ZM23.64 4.37066L24.4679 1.97442L24.4705 1.96736C24.5481 1.75679 24.6883 1.57517 24.8723 1.44693C25.0566 1.31845 25.2755 1.25 25.4993 1.25C25.7231 1.25 25.942 1.31844 26.1263 1.44693C26.3102 1.57517 26.4505 1.75679 26.528 1.96736L26.5314 1.97652L27.3775 4.37066H29.6831L29.6984 4.37128C29.922 4.38038 30.1375 4.45772 30.316 4.59296C30.4947 4.72837 30.6273 4.91521 30.6964 5.12796C30.7656 5.341 30.7678 5.57008 30.7028 5.78442C30.6397 5.99232 30.5163 6.17678 30.3483 6.31436L28.5258 7.87831L29.3207 10.3458L29.3248 10.3604C29.3847 10.5759 29.3773 10.8047 29.3034 11.0159C29.2295 11.2271 29.0928 11.4105 28.9117 11.5417C28.7303 11.673 28.5134 11.7454 28.2902 11.7498C28.0671 11.7542 27.8474 11.6904 27.6609 11.5662L27.654 11.5616L25.5 10.0924L23.339 11.5663C23.1525 11.6905 22.9329 11.7542 22.7098 11.7498C22.4865 11.7454 22.2696 11.673 22.0882 11.5417C21.9072 11.4105 21.7704 11.2271 21.6965 11.0159C21.6227 10.8047 21.6152 10.5759 21.6752 10.3604L21.6793 10.3456L22.4746 7.88047L20.6514 6.31419C20.4835 6.17663 20.3602 5.99223 20.2971 5.78442C20.2321 5.57008 20.2344 5.341 20.3036 5.12796C20.3726 4.91521 20.5053 4.72837 20.684 4.59296C20.8624 4.45773 21.0779 4.38039 21.3016 4.37128L21.3168 4.37066H23.64Z" fill="black"/>
</svg>

<svg xmlns="http://www.w3.org/2000/svg" width="32" height="32" viewBox="0 0 32 32"><path d="M7 6.25a3.25 3.25 0 0 0-3.25 3.251V19c0 1.933.861 2.997 1.864 3.437a.75.75 0 0 1 .405.939c-.205.575-.61 1.134-1.07 1.602a6.5 6.5 0 0 1-.753.658c.666.09 1.59.041 2.525-.332.82-.328 1.525-.721 2.236-1.117q.408-.23.829-.454c.973-.517 2.02-.983 3.214-.983h12.003a3.25 3.25 0 0 0 3.247-3.25v-6a.75.75 0 0 1 1.5 0v6a4.75 4.75 0 0 1-4.747 4.75H13c-.806 0-1.576.31-2.51.807q-.348.186-.73.4c-.734.41-1.566.873-2.482 1.24-1.4.56-2.8.562-3.75.34-.438-.103-.924-.286-1.218-.61-.163-.179-.358-.513-.24-.929.104-.373.4-.571.595-.669a4.74 4.74 0 0 0 1.642-1.409C3.068 22.576 2.25 21.07 2.25 19V9.501A4.75 4.75 0 0 1 7 4.75h11.5a.75.75 0 0 1 0 1.5zM25.504 3.57l-.543 1.57-.709-.245.704.26a1.1 1.1 0 0 1-.983.715h-1.536l1.172 1.008a1.15 1.15 0 0 1 .378 1.199l-.004.013-.505 1.566 1.413-.964a1.1 1.1 0 0 1 1.218 0l.006.004 1.408.96-.515-1.6-.004-.012a1.1 1.1 0 0 1 .36-1.146l1.198-1.027H27.05a1.1 1.1 0 0 1-.986-.716l-.004-.01zm-1.864.8.828-2.396.003-.007a1.096 1.096 0 0 1 2.057 0l.003.01.847 2.394h2.3200000000000003a1.097 1.097 0 0 1 .65 1.943l-1.822 1.564.795 2.468.004.014a1.096 1.096 0 0 1-1.664 1.206l-.007-.004-2.154-1.47-2.161 1.474a1.096 1.096 0 0 1-1.664-1.206l.004-.014.796-2.466-1.824-1.566a1.097 1.097 0 0 1 .65-1.943h2.339"/></svg>
